public/assets/icons/white/large_beam.svg

<?xml version="1.0" encoding="UTF-8" standalone="no"?>
<svg
   version="1.1"
   viewBox="0 -64 1024 1024"
   width="512"
   height="512"
   id="svg1"
   sodipodi:docname="large_beam.svg"
   inkscape:version="1.3.1 (91b66b0783, 2023-11-16)"
   xmlns:inkscape="http://www.inkscape.org/namespaces/inkscape"
   xmlns:sodipodi="http://sodipodi.sourceforge.net/DTD/sodipodi-0.dtd"
   xmlns="http://www.w3.org/2000/svg"
   xmlns:svg="http://www.w3.org/2000/svg">
  <defs
     id="defs1" />
  <sodipodi:namedview
     id="namedview1"
     pagecolor="#ffffff"
     bordercolor="#000000"
     borderopacity="0.25"
     inkscape:showpageshadow="2"
     inkscape:pageopacity="0.0"
     inkscape:pagecheckerboard="0"
     inkscape:deskcolor="#d1d1d1"
     inkscape:zoom="1.5742188"
     inkscape:cx="256"
     inkscape:cy="255.68238"
     inkscape:window-width="1920"
     inkscape:window-height="1009"
     inkscape:window-x="3832"
     inkscape:window-y="-8"
     inkscape:window-maximized="1"
     inkscape:current-layer="svg1" />
  <g
     transform="matrix(1 0 0 -1 0 960)"
     id="g1"
     style="fill:#ffffff">
    <path
       fill="currentColor"
       d="M35 929v-146l417 -380l-222 47l290 -228q2 22 19 38t40 16q25 0 43 -18t18 -43t-18 -42.5t-43 -17.5q-16 0 -29.5 8t-21.5 21l-210 6l313 -144l-249 -46l86 -30h242q2 8 3.5 16.5t3.5 16.5q-20 6 -33 23.5t-13 39.5q0 27 19.5 46.5t46.5 19.5q10 0 18.5 -2.5t15.5 -7.5 q9 14 19 26.5t21 23.5q-8 6 -13 14.5t-7 18.5q-6 -5 -13.5 -8t-16.5 -3q-19 0 -32 13t-13 32t13 32.5t32 13.5q13 0 24 -7t17 -18q8 12 22 19t30 7q19 0 35 -10t23 -26q19 9 37.5 15.5t38.5 10.5v135l-15 131l-77 -210l-78 329l-57 -223l-186 321l21 -240l-397 410h-164v0z M571 446q13 0 23.5 -7.5t13.5 -19.5q8 7 18.5 11t21.5 4q26 0 43.5 -18t17.5 -43q0 -26 -17.5 -44t-43.5 -18q-25 0 -43 18t-18 43q-3 -2 -7 -3t-9 -1q-16 0 -27 11.5t-11 27.5t11 27.5t27 11.5v0zM796 396q16 0 27.5 -11.5t11.5 -27.5t-11.5 -27.5t-27.5 -11.5t-27.5 11.5 t-11.5 27.5t11.5 27.5t27.5 11.5v0z"
       id="path1"
       style="fill:#ffffff" />
  </g>
</svg>

<?xml version="1.0" encoding="UTF-8" standalone="no"?>
<svg
   version="1.1"
   viewBox="0 -64 1024 1024"
   width="512"
   height="512"
   id="svg1"
   sodipodi:docname="large_beam.svg"
   inkscape:version="1.2.2 (732a01da63, 2022-12-09)"
   xmlns:inkscape="http://www.inkscape.org/namespaces/inkscape"
   xmlns:sodipodi="http://sodipodi.sourceforge.net/DTD/sodipodi-0.dtd"
   xmlns="http://www.w3.org/2000/svg"
   xmlns:svg="http://www.w3.org/2000/svg">
  <defs
     id="defs1" />
  <sodipodi:namedview
     id="namedview1"
     pagecolor="#ffffff"
     bordercolor="#000000"
     borderopacity="0.25"
     inkscape:showpageshadow="2"
     inkscape:pageopacity="0.0"
     inkscape:pagecheckerboard="0"
     inkscape:deskcolor="#d1d1d1"
     inkscape:zoom="1.5742188"
     inkscape:cx="215.66252"
     inkscape:cy="255.99999"
     inkscape:window-width="1920"
     inkscape:window-height="1009"
     inkscape:window-x="-8"
     inkscape:window-y="-8"
     inkscape:window-maximized="1"
     inkscape:current-layer="svg1"
     showgrid="false" />
  <g
     transform="matrix(1,0,0,-1,0.5,897.5)"
     id="g1"
     style="fill:#ffffff">
    <path
       fill="currentColor"
       d="M 35,929 V 783 L 452,403 230,450 520,222 q 2,22 19,38 17,16 40,16 25,0 43,-18 18,-18 18,-43 0,-25 -18,-42.5 -18,-17.5 -43,-17.5 -16,0 -29.5,8 -13.5,8 -21.5,21 L 318,190 631,46 382,0 468,-30 h 242 q 2,8 3.5,16.5 Q 715,-5 717,3 697,9 684,26.5 671,44 671,66 q 0,27 19.5,46.5 19.5,19.5 46.5,19.5 10,0 18.5,-2.5 8.5,-2.5 15.5,-7.5 9,14 19,26.5 10,12.5 21,23.5 -8,6 -13,14.5 -5,8.5 -7,18.5 -6,-5 -13.5,-8 -7.5,-3 -16.5,-3 -19,0 -32,13 -13,13 -13,32 0,19 13,32.5 13,13.5 32,13.5 13,0 24,-7 11,-7 17,-18 8,12 22,19 14,7 30,7 19,0 35,-10 16,-10 23,-26 19,9 37.5,15.5 Q 968,272 988,276 V 411 L 973,542 896,332 818,661 761,438 575,759 596,519 199,929 Z M 571,446 q 13,0 23.5,-7.5 Q 605,431 608,419 q 8,7 18.5,11 10.5,4 21.5,4 26,0 43.5,-18 17.5,-18 17.5,-43 0,-26 -17.5,-44 -17.5,-18 -43.5,-18 -25,0 -43,18 -18,18 -18,43 -3,-2 -7,-3 -4,-1 -9,-1 -16,0 -27,11.5 -11,11.5 -11,27.5 0,16 11,27.5 11,11.5 27,11.5 z m 225,-50 q 16,0 27.5,-11.5 Q 835,373 835,357 835,341 823.5,329.5 812,318 796,318 780,318 768.5,329.5 757,341 757,357 q 0,16 11.5,27.5 Q 780,396 796,396 Z"
       id="path1"
       style="fill:#ffffff" />
  </g>
</svg>
